X:1
T:Father Murphy of County Wexford
M:3/4
L:1/8
K:D
 d| cA B3/2 A/2 FF| FE E3/2- F/2 AB| cA B3/2- A/2 FE| ED D3 d| cA B3/2- A/2 FF|\
 FE E3/2- F/2 AB| cA B3/2- A/2 FE| ED D3 E| FF d2 c d/2d/2| ed c3/2- B/2 AA|\
 BB B3/2- A/2 FA| Bc d3 d| cB B3/2 A/2 FF| FE E3/2- F/2 AB| c/2c/2 A B3/2- A/2 FE|\
 ED D3||
